X: 53
T:Gathering Peascods
K:A
M:4/4
e4 e2 e2  |c3 d e2 e2| f2 e2 d2 c2|B6 c2|B2 A2 A2 G2|A6:|
|:A2 |G2 E2 G2 A2 | B4 c2 B2|AB c2 BA A2| G6 G2| F2 E2 F3 E|E6:|
|:e2|c2 A2 A2 Bc|d6 d2|c2 A2 A2 Bc| d6 e2|c2 A2 A2 Bc| d3 e f2 ed|c2 dc B3 A| A6:|

